svg/fluentui-system-icons/ic_fluent_window_wrench_32_regular.svg

<svg width="32" height="32" viewBox="0 0 32 32" fill="none" xmlns="http://www.w3.org/2000/svg">
<path d="M3 7.5C3 5.01472 5.01472 3 7.5 3H24.5C26.9853 3 29 5.01472 29 7.5V17C29 15.4506 27.7496 14.8384 27.0651 14.7102C27.0437 14.7016 27.022 14.6933 27 14.6853V11H5V24.5C5 25.8807 6.11929 27 7.5 27H14.9236C14.6663 27.6372 14.5797 28.3273 14.664 29H7.5C5.01472 29 3 26.9853 3 24.5V7.5ZM7.5 5C6.11929 5 5 6.11929 5 7.5V9H27V7.5C27 6.11929 25.8807 5 24.5 5H7.5ZM16.183 29C16.0439 28.3153 16.1937 27.5835 16.6324 27C16.7026 26.9067 16.7801 26.8172 16.865 26.7322L20.3003 23.297C20.1057 22.7339 20 22.1293 20 21.5C20 18.4624 22.4624 16 25.5 16C25.8082 16 26.1105 16.0253 26.4048 16.0741C26.7733 16.1351 26.8842 16.5802 26.6201 16.8443L24.7322 18.7322C23.7559 19.7085 23.7559 21.2915 24.7322 22.2678C25.7085 23.2441 27.2915 23.2441 28.2678 22.2678L30.1557 20.3799C30.4198 20.1158 30.8649 20.2267 30.9259 20.5952C30.9747 20.8895 31 21.1918 31 21.5C31 24.5376 28.5376 27 25.5 27C24.9448 27 24.4088 26.9177 23.9036 26.7647L20.4006 30.2678C19.4243 31.2441 17.8414 31.2441 16.865 30.2678C16.5047 29.9075 16.2774 29.4646 16.183 29Z" fill="#212121"/>
</svg>

<svg xmlns="http://www.w3.org/2000/svg" width="32" height="32"><path d="M3 7.5A4.5 4.5 0 0 1 7.5 3h17A4.5 4.5 0 0 1 29 7.5V17c0-1.55-1.25-2.162-1.935-2.29a2.09 2.09 0 0 0-.065-.025V11H5v13.5A2.5 2.5 0 0 0 7.5 27h7.424a4.013 4.013 0 0 0-.26 2H7.5A4.5 4.5 0 0 1 3 24.5v-17ZM7.5 5A2.5 2.5 0 0 0 5 7.5V9h22V7.5A2.5 2.5 0 0 0 24.5 5h-17Zm8.683 24a2.5 2.5 0 0 1 .682-2.268l3.435-3.435a5.5 5.5 0 0 1 6.105-7.223c.368.061.48.506.215.77l-1.888 1.888a2.5 2.5 0 0 0 3.536 3.536l1.888-1.888c.264-.264.709-.153.77.215a5.5 5.5 0 0 1-7.022 6.17L20.4 30.268A2.5 2.5 0 0 1 16.183 29Z"/></svg>
